icons/uF001-home.svg

<?xml version="1.0" encoding="UTF-8" standalone="no"?>
<svg width="100px" height="100px" viewBox="0 0 100 100" version="1.1" xmlns="http://www.w3.org/2000/svg" xmlns:xlink="http://www.w3.org/1999/xlink" xmlns:sketch="http://www.bohemiancoding.com/sketch/ns">
    <!-- Generator: Sketch 3.1 (8751) - http://www.bohemiancoding.com/sketch -->
    <title>home</title>
    <desc>Created with Sketch.</desc>
    <defs></defs>
    <g id="Icons" stroke="none" stroke-width="1" fill="none" fill-rule="evenodd" sketch:type="MSPage">
        <g id="home" sketch:type="MSArtboardGroup" fill="#000000">
            <g sketch:type="MSLayerGroup" transform="translate(1.000000, 8.000000)">
                <path d="M40.4925423,83.9958758 L14.4616222,83.9958758 L14.4616222,47.3049664 L0,47.3049664 L49.2244698,0 L98.3390312,47.3049664 L86.7697334,47.3049664 L86.7697334,83.9958758 L60.7388134,83.9958758 L60.7388134,51.1134982 L40.4925423,51.1134982 L40.4925423,83.9958758 Z" sketch:type="MSShapeGroup"></path>
            </g>
        </g>
    </g>
</svg>

<?xml version="1.0" encoding="UTF-8" standalone="no"?>
<svg
   xmlns:sketch="http://www.bohemiancoding.com/sketch/ns"
   xmlns:dc="http://purl.org/dc/elements/1.1/"
   xmlns:cc="http://creativecommons.org/ns#"
   xmlns:rdf="http://www.w3.org/1999/02/22-rdf-syntax-ns#"
   xmlns:svg="http://www.w3.org/2000/svg"
   xmlns="http://www.w3.org/2000/svg"
   xmlns:sodipodi="http://sodipodi.sourceforge.net/DTD/sodipodi-0.dtd"
   xmlns:inkscape="http://www.inkscape.org/namespaces/inkscape"
   width="100px"
   height="100px"
   viewBox="0 0 100 100"
   version="1.1"
   id="svg3003"
   inkscape:version="0.48.5 r10040"
   sodipodi:docname="uF001-home.svg">
  <metadata
     id="metadata3019">
    <rdf:RDF>
      <cc:Work
         rdf:about="">
        <dc:format>image/svg+xml</dc:format>
        <dc:type
           rdf:resource="http://purl.org/dc/dcmitype/StillImage" />
      </cc:Work>
    </rdf:RDF>
  </metadata>
  <sodipodi:namedview
     pagecolor="#ffffff"
     bordercolor="#666666"
     borderopacity="1"
     objecttolerance="10"
     gridtolerance="10"
     guidetolerance="10"
     inkscape:pageopacity="0"
     inkscape:pageshadow="2"
     inkscape:window-width="1280"
     inkscape:window-height="962"
     id="namedview3017"
     showgrid="true"
     inkscape:zoom="8.15"
     inkscape:cx="50"
     inkscape:cy="46.932515"
     inkscape:window-x="-8"
     inkscape:window-y="-8"
     inkscape:window-maximized="1"
     inkscape:current-layer="svg3003">
    <inkscape:grid
       type="xygrid"
       id="grid3021" />
  </sodipodi:namedview>
  <!-- Generator: Sketch 3.1 (8751) - http://www.bohemiancoding.com/sketch -->
  <title
     id="title3005">home</title>
  <desc
     id="desc3007">Created with Sketch.</desc>
  <defs
     id="defs3009" />
  <g
     id="Icons"
     sketch:type="MSPage"
     style="fill:none;stroke:none"
     transform="translate(-0.12269939,0.12269939)">
    <g
       id="home"
       sketch:type="MSArtboardGroup"
       style="fill:#000000">
      <g
         sketch:type="MSLayerGroup"
         transform="translate(1,8)"
         id="g3013">
        <path
           d="m 40.492542,83.995876 -26.03092,0 0,-36.69091 L 0,47.304966 49.22447,0 l 49.114561,47.304966 -11.569298,0 0,36.69091 -26.03092,0 0,-32.882378 -20.246271,0 0,32.882378 z"
           sketch:type="MSShapeGroup"
           id="path3015"
           inkscape:connector-curvature="0" />
      </g>
    </g>
  </g>
</svg>
